X: 51
T:Poolside Polka
M:2/4
L:1/16
C:Cliff Stapleton
R:Polka
N:http://www.lesession.co.uk
Z:Steve Mansfield 1998-2001
K:G
B2 d2 g2 ba | g2 fe d4 | egfe d2 B2 | cBcd A4 | 
B2 d2 g2 ba | g2 fe d4 | egfe dfab |1 a2 g2 g4 :|2 a2 g2 AB |: 
c3 c e2 dc | B6 d2 | defg agfe | d6 B2 | 
c3 c e2 dc | B6 d2 | defg agfa |1 g2 b2 g2 :|2 g2 b2 g2 Bc |:
d2 d2 dBdg | d2 d2 dBdg | edce dcBd | cBAB cABc | 
d2 d2 dBdg | d2 d2 dBdg | edce dcBd | cBAB G4 :|
<end>
<start>
